X: 1
T:Sally Gardens, The
R:reel
Z:id:hn-reel-23
M:C|
K:G
G2DG B2GB|dBeB dBAB|d2 (3Bcd efge|dBAB GEDE|
G2DG BAGB|dBeB dBAB|d2 (3Bcd efge|dBAB G3z:|
|:dggf g2dg|~g2bg ageg|eaag a2eg|a2bg ageg|
dggf g2dg|~g2bg ageg|d2 (3Bcd efge|dBAB G3z:|
"Variations:"
|:GBDG BDGB|dgeB dBAB|dG (3Bcd edge|dBAB GEDE|
~G3B BAGB|dBeB dBAB|dG (3Bcd e2ge|dBAB G3z:|
|:dggf gede|gbaf gedg|eaag ageg|agbg ageg|
dggf gede|gabg ageg|d2 (3Bcd efge|dBAB G3z:|
